svgs/portauthority.svg

<svg xmlns="http://www.w3.org/2000/svg" viewBox="0 0 192 192"><path d="M167.346 32.5H24.654a8.125 8.125 0 0 0-4.077 1.098 8.17 8.17 0 0 0-2.985 2.999 8.228 8.228 0 0 0-1.092 4.097v110.612c0 1.439.377 2.852 1.092 4.097a8.17 8.17 0 0 0 2.985 2.999 8.125 8.125 0 0 0 4.077 1.098h48.713v-11.946h-9.183v-12.451H40.779V56.898h110.444v78.207h-23.407v12.451h-9.184V159.5h48.714a8.138 8.138 0 0 0 5.766-2.4 8.218 8.218 0 0 0 2.388-5.794V40.694c0-2.173-.86-4.258-2.388-5.794a8.138 8.138 0 0 0-5.766-2.4Zm-93.979 127h45.265M96 74.865V56.898m-9.059 17.967V56.898m18.118 17.967V56.898m18.089 17.967V56.898M68.752 74.865V56.898m45.365 17.967V56.898M77.883 74.865V56.898" fill="none" stroke="#000" stroke-width="8" stroke-linecap="round" stroke-linejoin="round"/><path d="M59.764 56.896v17.969h72.472V56.896" fill="none" stroke="#000" stroke-width="8" stroke-linecap="round" stroke-linejoin="round"/></svg>

<svg
    xmlns="http://www.w3.org/2000/svg"
    viewBox="0 0 192 192"
    id="vector">
    <path
        id="path"
        d="M 167.346 32.5 L 24.654 32.5 C 23.223 32.5 21.816 32.879 20.577 33.598 C 19.337 34.317 18.308 35.351 17.592 36.597 C 16.877 37.842 16.5 39.255 16.5 40.694 L 16.5 151.306 C 16.5 152.745 16.877 154.158 17.592 155.403 C 18.308 156.649 19.337 157.683 20.577 158.402 C 21.816 159.121 23.223 159.5 24.654 159.5 L 73.367 159.5 L 73.367 147.554 L 64.184 147.554 L 64.184 135.103 L 40.779 135.103 L 40.779 56.898 L 151.223 56.898 L 151.223 135.105 L 127.816 135.105 L 127.816 147.556 L 118.632 147.556 L 118.632 159.5 L 167.346 159.5 C 169.508 159.5 171.583 158.636 173.112 157.1 C 174.64 155.564 175.5 153.479 175.5 151.306 L 175.5 40.694 C 175.5 38.521 174.64 36.436 173.112 34.9 C 171.583 33.364 169.508 32.5 167.346 32.5 Z M 73.367 159.5 L 118.632 159.5 M 96 74.865 L 96 56.898 M 86.941 74.865 L 86.941 56.898 M 105.059 74.865 L 105.059 56.898 M 123.148 74.865 L 123.148 56.898 M 68.752 74.865 L 68.752 56.898 M 114.117 74.865 L 114.117 56.898 M 77.883 74.865 L 77.883 56.898"
        fill="none"
        stroke="#000000"
        stroke-width="8"
        stroke-linecap="round"
        stroke-linejoin="round"/>
    <path
        id="path_1"
        d="M 59.764 56.896 L 59.764 74.865 L 132.236 74.865 L 132.236 56.896"
        fill="none"
        stroke="#000000"
        stroke-width="8"
        stroke-linecap="round"
        stroke-linejoin="round"/>
</svg>
